icon-themes/sifr_svg/cmd/lc_connectorlinecirclestart.svg

<svg viewBox="0 0 24 24" xmlns="http://www.w3.org/2000/svg"><path d="m5 1c-2.197296 0-4 1.802704-4 4s1.802704 4 4 4c.737499 0 1.4222261-.2154394 2.0175781-.5683594l8.5507809 8.5507814c-.35292.595352-.568359 1.280079-.568359 2.017578 0 2.197296 1.802704 4 4 4 2.197295 0 4-1.802704 4-4s-1.802705-4-4-4c-.737499 0-1.422226.215439-2.017578.568359l-8.5507814-8.5507809c.35292-.595352.5683594-1.2800791.5683594-2.0175781 0-2.197296-1.802704-4-4-4zm14 16c1.116415 0 2 .883584 2 2s-.883585 2-2 2-2-.883584-2-2 .883585-2 2-2z" fill="#555753"/></svg>

<svg xmlns="http://www.w3.org/2000/svg" viewBox="0 0 24 24">
 <path
     style="fill:#555753"
     d="M 5 1 C 2.802704 1 1 2.802704 1 5 C 1 7.197296 2.802704 9 5 9 C 5.737499 9 6.4222261 8.7845606 7.0175781 8.4316406 L 15.568359 16.982422 C 15.215439 17.577774 15 18.262501 15 19 C 15 21.197296 16.802704 23 19 23 C 21.197295 23 23 21.197296 23 19 C 23 16.802704 21.197295 15 19 15 C 18.262501 15 17.577774 15.215439 16.982422 15.568359 L 8.4316406 7.0175781 C 8.7845606 6.4222261 9 5.737499 9 5 C 9 2.802704 7.197296 1 5 1 z M 19 17 C 20.116415 17 21 17.883584 21 19 C 21 20.116416 20.116415 21 19 21 C 17.883585 21 17 20.116416 17 19 C 17 17.883584 17.883585 17 19 17 z "
     />
 </svg>
